docs/img/dist/icon-faq-09.svg

<svg width="22" height="22" viewBox="0 0 22 22" fill="none" xmlns="http://www.w3.org/2000/svg">
<path fill-rule="evenodd" clip-rule="evenodd" d="M18.875 3.12509C18.0623 2.29794 17.0937 1.64007 16.0253 1.18951C14.9568 0.738949 13.8096 0.504628 12.65 0.500094C11.4778 0.494662 10.3164 0.724147 9.23435 1.175C8.1523 1.62585 7.17155 2.28893 6.35001 3.12509C5.53641 3.94398 4.89238 4.91534 4.4548 5.98353C4.01723 7.05173 3.79472 8.19576 3.80001 9.35009C3.80001 11.1501 4.32501 12.8751 5.30001 14.3751L0.95001 18.6501C0.643152 18.9592 0.470947 19.3771 0.470947 19.8126C0.470947 20.2481 0.643152 20.666 0.95001 20.9751C1.32501 21.2751 1.70001 21.4251 2.15001 21.4251C2.56851 21.4232 2.97065 21.2623 3.27501 20.9751L7.62501 16.7001C9.10795 17.7006 10.8613 18.224 12.65 18.2001C13.8043 18.2054 14.9484 17.9829 16.0166 17.5453C17.0848 17.1077 18.0561 16.4637 18.875 15.6501C19.7112 14.8286 20.3743 13.8478 20.8251 12.7658C21.276 11.6837 21.5054 10.5223 21.5 9.35009C21.5 7.02509 20.6 4.77509 18.875 3.12509ZM2.37501 20.0001C2.3028 20.0543 2.21347 20.0805 2.12343 20.0742C2.03339 20.0678 1.94867 20.0291 1.88484 19.9653C1.82102 19.9014 1.78235 19.8167 1.77595 19.7267C1.76955 19.6366 1.79585 19.5473 1.85001 19.4751L6.05001 15.2751C6.24202 15.459 6.44222 15.6342 6.65001 15.8001L2.45001 20.0001H2.37501ZM18.05 14.7501C16.6079 16.1823 14.6559 16.9829 12.6235 16.9759C10.5911 16.9688 8.64468 16.1547 7.21251 14.7126C5.78034 13.2705 4.97971 11.3185 4.98674 9.28608C4.99377 7.25365 5.8079 5.30726 7.25001 3.87509C7.95601 3.16081 8.79699 2.59405 9.72404 2.20778C10.6511 1.8215 11.6457 1.62344 12.65 1.62509C13.6543 1.62344 14.6489 1.8215 15.576 2.20778C16.503 2.59405 17.344 3.16081 18.05 3.87509C21.05 6.87509 21.05 11.6751 18.05 14.6751V14.7501Z" fill="#202020"/>
<path fill-rule="evenodd" clip-rule="evenodd" d="M17.45 4.6251C16.824 3.98641 16.0773 3.47849 15.2532 3.13086C14.4292 2.78323 13.5443 2.60281 12.65 2.6001C11.7557 2.60281 10.8708 2.78323 10.0468 3.13086C9.22276 3.47849 8.47604 3.98641 7.85 4.6251C6.59053 5.89011 5.88342 7.60251 5.88342 9.3876C5.88342 11.1727 6.59053 12.8851 7.85 14.1501C8.48223 14.7752 9.23173 15.2693 10.0555 15.604C10.8792 15.9386 11.7609 16.1072 12.65 16.1001C13.5391 16.1072 14.4208 15.9386 15.2445 15.604C16.0683 15.2693 16.8178 14.7752 17.45 14.1501C18.0751 13.5179 18.5692 12.7684 18.9039 11.9446C19.2385 11.1209 19.4071 10.2392 19.4 9.3501C19.4071 8.46102 19.2385 7.57929 18.9039 6.75556C18.5692 5.93183 18.0751 5.18232 17.45 4.5501V4.6251ZM16.55 13.2501C15.4834 14.1016 14.1403 14.5303 12.7776 14.4541C11.4149 14.378 10.128 13.8023 9.16288 12.8372C8.19778 11.8721 7.62214 10.5852 7.54597 9.22249C7.46981 7.85976 7.89846 6.51674 8.75 5.4501C9.26415 4.94344 9.87341 4.54345 10.5427 4.27315C11.212 4.00285 11.9282 3.86757 12.65 3.8751C14.075 3.8751 15.5 4.4001 16.55 5.4501C17.0567 5.96424 17.4566 6.5735 17.727 7.24282C17.9973 7.91214 18.1325 8.6283 18.125 9.3501C18.1325 10.0719 17.9973 10.7881 17.727 11.4574C17.4566 12.1267 17.0567 12.7359 16.55 13.2501Z" fill="#202020"/>
<path fill-rule="evenodd" clip-rule="evenodd" d="M12.65 6.65021C12.5645 6.64954 12.4798 6.66716 12.4016 6.70189C12.3235 6.73662 12.2537 6.78766 12.1968 6.85158C12.14 6.9155 12.0975 6.99083 12.0722 7.07252C12.0469 7.1542 12.0393 7.24036 12.05 7.32521V9.72521C12.05 9.88434 12.1132 10.037 12.2257 10.1495C12.3383 10.262 12.4909 10.3252 12.65 10.3252C12.8091 10.3252 12.9617 10.262 13.0743 10.1495C13.1868 10.037 13.25 9.88434 13.25 9.72521V7.25021C13.2607 7.16536 13.2531 7.0792 13.2278 6.99752C13.2025 6.91583 13.16 6.8405 13.1032 6.77658C13.0463 6.71266 12.9765 6.66162 12.8984 6.62689C12.8202 6.59216 12.7355 6.57454 12.65 6.57521V6.65021ZM13.25 11.4502C13.2512 11.4252 13.2512 11.4002 13.25 11.3752C13.2332 11.3215 13.2079 11.2709 13.175 11.2252C13.1288 11.1933 13.0783 11.1681 13.025 11.1502C12.9843 11.0917 12.9335 11.0409 12.875 11.0002C12.8252 10.9939 12.7748 10.9939 12.725 11.0002C12.6266 10.9748 12.5234 10.9748 12.425 11.0002C12.3713 11.017 12.3207 11.0423 12.275 11.0752C12.2481 11.0982 12.223 11.1233 12.2 11.1502C12.1725 11.1726 12.1474 11.1977 12.125 11.2252C12.0853 11.2945 12.0598 11.371 12.05 11.4502C12.0246 11.5486 12.0246 11.6518 12.05 11.7502C12.045 11.8001 12.045 11.8503 12.05 11.9002C12.0724 11.9277 12.0975 11.9528 12.125 11.9752C12.1707 12.0081 12.2213 12.0334 12.275 12.0502C12.3217 12.0814 12.3721 12.1065 12.425 12.1252C12.45 12.127 12.475 12.127 12.5 12.1252C12.5743 12.1394 12.6507 12.1394 12.725 12.1252C12.7746 12.1336 12.8253 12.1336 12.875 12.1252C12.9248 12.1308 12.9752 12.1308 13.025 12.1252C13.0915 12.0626 13.1428 11.9857 13.175 11.9002C13.1822 11.8505 13.1822 11.8 13.175 11.7502C13.2061 11.7035 13.2313 11.6531 13.25 11.6002C13.2563 11.5504 13.2563 11.5 13.25 11.4502Z" fill="#D61635"/>
</svg>

<svg width="22" height="22" fill="none" xmlns="http://www.w3.org/2000/svg"><path fill-rule="evenodd" clip-rule="evenodd" d="M18.875 3.125a8.776 8.776 0 00-9.64-1.95 8.775 8.775 0 00-2.885 1.95A8.775 8.775 0 003.8 9.35c0 1.8.525 3.525 1.5 5.025L.95 18.65a1.65 1.65 0 000 2.325c.375.3.75.45 1.2.45a1.65 1.65 0 001.125-.45l4.35-4.275a8.775 8.775 0 005.025 1.5 8.775 8.775 0 006.225-2.55 8.774 8.774 0 002.625-6.3c0-2.325-.9-4.575-2.625-6.225zM2.375 20a.375.375 0 01-.525-.525l4.2-4.2c.192.184.392.36.6.525L2.45 20h-.075zm15.675-5.25A7.663 7.663 0 117.25 3.875a7.575 7.575 0 015.4-2.25 7.575 7.575 0 015.4 2.25c3 3 3 7.8 0 10.8v.075z" fill="#202020"/><path fill-rule="evenodd" clip-rule="evenodd" d="M17.45 4.625a6.749 6.749 0 00-4.8-2.025 6.75 6.75 0 00-4.8 2.025 6.75 6.75 0 000 9.525 6.752 6.752 0 004.8 1.95 6.75 6.75 0 004.8-1.95 6.75 6.75 0 001.95-4.8 6.751 6.751 0 00-1.95-4.8v.075zm-.9 8.625a5.55 5.55 0 01-7.8-7.8 5.475 5.475 0 013.9-1.575c1.425 0 2.85.525 3.9 1.575a5.476 5.476 0 011.575 3.9 5.476 5.476 0 01-1.575 3.9z" fill="#202020"/><path fill-rule="evenodd" clip-rule="evenodd" d="M12.65 6.65a.6.6 0 00-.6.675v2.4a.6.6 0 101.2 0V7.25a.6.6 0 00-.6-.675v.075zm.6 4.8a.782.782 0 000-.075.525.525 0 00-.075-.15.6.6 0 00-.15-.075.6.6 0 00-.15-.15.598.598 0 00-.15 0 .6.6 0 00-.3 0 .525.525 0 00-.15.075.68.68 0 00-.075.075.521.521 0 00-.075.075.601.601 0 00-.075.225.6.6 0 000 .3.752.752 0 000 .15.521.521 0 00.075.075.525.525 0 00.15.075.675.675 0 00.15.075.47.47 0 00.075 0 .6.6 0 00.225 0c.05.009.1.009.15 0 .05.006.1.006.15 0a.599.599 0 00.15-.225.524.524 0 000-.15.679.679 0 00.075-.15.598.598 0 000-.15z" fill="#D61635"/></svg>
